Numix-GalliumOS/64/mimetypes/application-image-jpg.svg

<svg xmlns="http://www.w3.org/2000/svg" xmlns:xlink="http://www.w3.org/1999/xlink" width="64px" height="64px" viewBox="0 0 64 64" version="1.1">
<g id="surface1">
<path style=" stroke:none;fill-rule:nonzero;fill:rgb(21.960784%,63.921569%,30.588235%);fill-opacity:1;" d="M 10.671875 0 C 9.296875 0 8 1.355469 8 2.789062 L 8 61.210938 C 8 62.566406 9.375 64 10.671875 64 L 53.328125 64 C 54.625 64 56 62.566406 56 61.210938 L 56 18 L 38 0 Z M 10.671875 0 "/>
<path style=" stroke:none;fill-rule:nonzero;fill:rgb(0%,0%,0%);fill-opacity:0.196078;" d="M 42 18 L 56 32 L 56 18 Z M 42 18 "/>
<path style=" stroke:none;fill-rule:nonzero;fill:rgb(100%,100%,100%);fill-opacity:0.392157;" d="M 38 0 L 55.984375 18 L 40.757812 18 C 39.410156 18 38 16.574219 38 15.226562 Z M 38 0 "/>
<path style=" stroke:none;fill-rule:nonzero;fill:rgb(100%,100%,100%);fill-opacity:1;" d="M 23.289062 22 C 22.585938 22.066406 21.984375 22.8125 22 23.605469 L 22 40.433594 C 22.007812 41.261719 22.667969 42.007812 23.40625 42 L 40.628906 42 C 41.355469 41.984375 41.992188 41.253906 42 40.433594 L 42 23.605469 C 42.015625 22.769531 41.371094 22.007812 40.628906 22 Z M 24 24 L 40 24 L 40 35.402344 L 35.296875 30.085938 L 34.117188 31.21875 L 32.316406 32.859375 L 31.214844 31.761719 L 28.386719 27.9375 L 24 33.597656 Z M 24 24 "/>
<path style=" stroke:none;fill-rule:nonzero;fill:rgb(0%,0%,0%);fill-opacity:0.196078;" d="M 8 48 L 8 61.335938 C 8 62.632812 9.375 64 10.664062 64 L 53.335938 64 C 54.625 64 56 62.632812 56 61.335938 L 56 48 Z M 8 48 "/>
<path style=" stroke:none;fill-rule:nonzero;fill:rgb(100%,100%,100%);fill-opacity:1;" d="M 25.863281 58.214844 C 25.863281 58.730469 25.78125 59.21875 25.625 59.683594 C 25.476562 60.144531 25.230469 60.542969 24.878906 60.894531 C 24.535156 61.238281 24.09375 61.515625 23.546875 61.722656 C 22.992188 61.917969 22.328125 62.015625 21.542969 62.015625 C 20.71875 62.015625 20.03125 61.925781 19.484375 61.738281 C 18.9375 61.558594 18.46875 61.328125 18.085938 61.066406 L 19.011719 59.375 C 19.335938 59.554688 19.695312 59.734375 20.089844 59.90625 C 20.496094 60.078125 20.90625 60.167969 21.324219 60.167969 C 21.953125 60.167969 22.460938 60.019531 22.835938 59.734375 C 23.230469 59.433594 23.425781 58.882812 23.425781 58.089844 L 23.425781 52.859375 L 19.363281 52.859375 L 19.363281 51.09375 L 25.863281 51.09375 L 25.863281 58.214844 "/>
<path style=" stroke:none;fill-rule:nonzero;fill:rgb(100%,100%,100%);fill-opacity:1;" d="M 31.46875 50.96875 C 33.015625 50.96875 34.21875 51.253906 35.066406 51.820312 C 35.917969 52.375 36.34375 53.285156 36.34375 54.550781 C 36.34375 55.824219 35.910156 56.757812 35.042969 57.332031 C 34.191406 57.894531 32.984375 58.179688 31.414062 58.179688 L 30.554688 58.179688 L 30.554688 61.792969 L 28.132812 61.792969 L 28.132812 51.230469 C 28.371094 51.191406 28.632812 51.148438 28.917969 51.109375 C 29.222656 51.074219 29.523438 51.050781 29.828125 51.042969 C 30.128906 51.019531 30.425781 51.003906 30.710938 50.992188 C 30.996094 50.976562 31.25 50.96875 31.46875 50.96875 M 31.75 52.824219 C 31.601562 52.824219 31.40625 52.824219 31.144531 52.839844 C 30.890625 52.839844 30.695312 52.851562 30.554688 52.875 L 30.554688 56.332031 L 31.535156 56.332031 C 32.304688 56.332031 32.886719 56.195312 33.277344 55.933594 C 33.671875 55.65625 33.867188 55.1875 33.867188 54.535156 C 33.867188 53.914062 33.671875 53.472656 33.277344 53.21875 C 32.902344 52.957031 32.386719 52.824219 31.75 52.824219 "/>
<path style=" stroke:none;fill-rule:nonzero;fill:rgb(100%,100%,100%);fill-opacity:1;" d="M 43.015625 52.703125 C 42.433594 52.703125 41.953125 52.792969 41.558594 52.980469 C 41.167969 53.160156 40.839844 53.421875 40.578125 53.757812 C 40.332031 54.078125 40.144531 54.46875 40.03125 54.925781 C 39.925781 55.375 39.875 55.882812 39.875 56.429688 C 39.875 57.714844 40.105469 58.65625 40.5625 59.269531 C 41.019531 59.867188 41.691406 60.167969 42.582031 60.167969 C 42.730469 60.167969 42.886719 60.160156 43.054688 60.152344 C 43.21875 60.136719 43.382812 60.117188 43.523438 60.09375 L 43.523438 56.195312 L 45.933594 56.195312 L 45.933594 61.53125 C 45.648438 61.625 45.199219 61.730469 44.585938 61.84375 C 43.980469 61.957031 43.253906 62.015625 42.386719 62.015625 C 41.625 62.015625 40.9375 61.902344 40.324219 61.671875 C 39.71875 61.425781 39.207031 61.074219 38.773438 60.617188 C 38.347656 60.144531 38.011719 59.5625 37.773438 58.867188 C 37.539062 58.164062 37.421875 57.355469 37.421875 56.429688 C 37.421875 55.523438 37.554688 54.722656 37.832031 54.035156 C 38.109375 53.332031 38.476562 52.742188 38.953125 52.269531 C 39.425781 51.796875 39.980469 51.445312 40.621094 51.214844 C 41.257812 50.96875 41.945312 50.855469 42.679688 50.855469 C 43.15625 50.855469 43.570312 50.886719 43.941406 50.953125 C 44.316406 51.011719 44.644531 51.082031 44.921875 51.164062 C 45.191406 51.246094 45.410156 51.328125 45.582031 51.417969 C 45.769531 51.515625 45.902344 51.582031 46 51.632812 L 45.371094 53.324219 C 45.085938 53.160156 44.722656 53.023438 44.308594 52.890625 C 43.890625 52.769531 43.457031 52.703125 43.015625 52.703125 "/>
</g>
</svg>

<svg xmlns="http://www.w3.org/2000/svg" viewBox="0 0 64 64">
 <g>
  <path d="m 10.672 0 c -1.375 0 -2.672 1.355 -2.672 2.789 l 0 58.42 c 0 1.355 1.375 2.789 2.672 2.789 l 42.656 0 c 1.297 0 2.672 -1.434 2.672 -2.789 l 0 -43.21 l -18 -18 m -27.328 0" style="fill:#37a34d;fill-opacity:1;stroke:none;fill-rule:nonzero"/>
  <path d="m 42 18 l 14 14 l 0 -14 m -14 0" style="fill:#000;fill-opacity:0.196;stroke:none;fill-rule:nonzero"/>
  <path d="m 38 0 l 17.984 18 l -15.227 0 c -1.348 0 -2.758 -1.426 -2.758 -2.773 m 0 -15.227" style="fill:#fff;fill-opacity:0.392;stroke:none;fill-rule:nonzero"/>
  <path d="m 23.289 22 c -0.703 0.066 -1.305 0.813 -1.289 1.605 l 0 16.828 c 0.008 0.828 0.668 1.574 1.406 1.566 l 17.223 0 c 0.727 -0.016 1.363 -0.746 1.371 -1.566 l 0 -16.828 c 0.016 -0.836 -0.629 -1.598 -1.371 -1.605 m -16.629 2 16 0 0 11.402 -4.703 -5.316 -2.98 2.773 -3.93 -4.922 -4.387 5.66" style="fill:#fff;fill-opacity:1;stroke:none;fill-rule:nonzero"/>
  <path d="m 8 48 l 0 13.336 c 0 1.297 1.375 2.664 2.664 2.664 l 42.672 0 c 1.289 0 2.664 -1.367 2.664 -2.664 l 0 -13.336 m -48 0" style="fill:#000;fill-opacity:0.196;stroke:none;fill-rule:nonzero"/>
  <path d="m 25.863 58.21 c 0 0.516 -0.082 1 -0.238 1.469 c -0.148 0.461 -0.395 0.859 -0.746 1.211 c -0.344 0.344 -0.785 0.621 -1.332 0.828 c -0.555 0.195 -1.219 0.293 -2 0.293 c -0.824 0 -1.512 -0.09 -2.059 -0.277 c -0.547 -0.18 -1.016 -0.41 -1.398 -0.672 l 0.926 -1.691 c 0.324 0.18 0.684 0.359 1.078 0.531 c 0.406 0.172 0.816 0.262 1.234 0.262 c 0.629 0 1.137 -0.148 1.512 -0.434 c 0.395 -0.301 0.59 -0.852 0.59 -1.645 l 0 -5.23 l -4.063 0 l 0 -1.766 l 6.5 0 l 0 7.121" style="fill:#fff;fill-opacity:1;stroke:none;fill-rule:nonzero"/>
  <path d="m 31.469 50.969 c 1.547 0 2.75 0.285 3.598 0.852 c 0.852 0.555 1.277 1.465 1.277 2.73 c 0 1.273 -0.434 2.207 -1.301 2.781 c -0.852 0.563 -2.059 0.848 -3.629 0.848 l -0.859 0 l 0 3.613 l -2.422 0 l 0 -10.563 c 0.238 -0.039 0.5 -0.082 0.785 -0.121 c 0.305 -0.035 0.605 -0.059 0.91 -0.066 c 0.301 -0.023 0.598 -0.039 0.883 -0.051 c 0.285 -0.016 0.539 -0.023 0.758 -0.023 m 0.281 1.855 c -0.148 0 -0.344 0 -0.605 0.016 c -0.254 0 -0.449 0.012 -0.59 0.035 l 0 3.457 l 0.98 0 c 0.77 0 1.352 -0.137 1.742 -0.398 c 0.395 -0.277 0.59 -0.746 0.59 -1.398 c 0 -0.621 -0.195 -1.063 -0.59 -1.316 c -0.375 -0.262 -0.891 -0.395 -1.527 -0.395" style="fill:#fff;fill-opacity:1;stroke:none;fill-rule:nonzero"/>
  <path d="m 43.02 52.703 c -0.582 0 -1.063 0.09 -1.457 0.277 c -0.391 0.18 -0.719 0.441 -0.98 0.777 c -0.246 0.32 -0.434 0.711 -0.547 1.168 c -0.105 0.449 -0.156 0.957 -0.156 1.504 c 0 1.285 0.23 2.227 0.688 2.84 c 0.457 0.598 1.129 0.898 2.02 0.898 c 0.148 0 0.305 -0.008 0.473 -0.016 c 0.164 -0.016 0.328 -0.035 0.469 -0.059 l 0 -3.898 l 2.41 0 l 0 5.336 c -0.285 0.094 -0.734 0.199 -1.348 0.313 c -0.605 0.113 -1.332 0.172 -2.199 0.172 c -0.762 0 -1.449 -0.113 -2.063 -0.344 c -0.605 -0.246 -1.117 -0.598 -1.551 -1.055 c -0.426 -0.473 -0.762 -1.055 -1 -1.75 c -0.234 -0.703 -0.352 -1.512 -0.352 -2.438 c 0 -0.906 0.133 -1.707 0.41 -2.395 c 0.277 -0.703 0.645 -1.293 1.121 -1.766 c 0.473 -0.473 1.027 -0.824 1.668 -1.055 c 0.637 -0.246 1.324 -0.359 2.059 -0.359 c 0.477 0 0.891 0.031 1.262 0.098 c 0.375 0.059 0.703 0.129 0.98 0.211 c 0.27 0.082 0.488 0.164 0.66 0.254 c 0.188 0.098 0.32 0.164 0.418 0.215 l -0.629 1.691 c -0.285 -0.164 -0.648 -0.301 -1.063 -0.434 c -0.418 -0.121 -0.852 -0.188 -1.293 -0.188" style="fill:#fff;fill-opacity:1;stroke:none;fill-rule:nonzero"/>
 </g>
</svg>
